img/youcode.svg

<?xml version="1.0" encoding="UTF-8"?>
<svg xmlns="http://www.w3.org/2000/svg" xmlns:xlink="http://www.w3.org/1999/xlink" width="357pt" height="65pt" viewBox="0 0 357 65" version="1.1">
<g id="surface21">
<path style="fill-rule:nonzero;fill:rgb(79.607843%,100%,0%);fill-opacity:1;stroke-width:0.75;stroke-linecap:butt;stroke-linejoin:miter;stroke:rgb(79.607843%,100%,0%);stroke-opacity:1;stroke-miterlimit:10;" d="M 62.773438 3.148438 L 55.199219 41.023438 C 53.746094 48.425781 50.871094 54.011719 46.574219 57.785156 C 42.269531 61.558594 36.796875 63.445312 30.148438 63.449219 C 25.847656 63.445312 22.121094 62.734375 18.972656 61.308594 C 15.820312 59.882812 13.34375 57.824219 11.546875 55.125 L 13.875 52.199219 C 15.621094 54.796875 17.84375 56.730469 20.546875 58.007812 C 23.242188 59.28125 26.519531 59.917969 30.375 59.921875 C 35.921875 59.917969 40.496094 58.335938 44.097656 55.160156 C 47.695312 51.988281 50.121094 47.199219 51.375 40.796875 L 53.023438 32.546875 C 50.871094 35.800781 48.167969 38.238281 44.921875 39.859375 C 41.667969 41.488281 37.96875 42.300781 33.824219 42.296875 C 28.417969 42.300781 24.207031 40.902344 21.183594 38.097656 C 18.160156 35.300781 16.648438 31.300781 16.648438 26.097656 C 16.648438 24.203125 16.871094 22.128906 17.324219 19.875 L 20.699219 3.148438 L 24.523438 3.148438 L 21.148438 19.949219 C 20.746094 22.203125 20.542969 24.128906 20.546875 25.722656 C 20.542969 30.027344 21.757812 33.289062 24.183594 35.511719 C 26.609375 37.738281 30.121094 38.851562 34.722656 38.847656 C 40.019531 38.851562 44.480469 37.339844 48.109375 34.3125 C 51.730469 31.289062 54.167969 26.75 55.421875 20.699219 L 58.949219 3.148438 Z M 85.472656 55.949219 C 80.171875 55.945312 75.960938 54.472656 72.835938 51.523438 C 69.710938 48.574219 68.148438 44.625 68.148438 39.671875 C 68.148438 35.226562 69.109375 31.226562 71.035156 27.675781 C 72.957031 24.125 75.621094 21.324219 79.023438 19.273438 C 82.421875 17.226562 86.269531 16.203125 90.574219 16.199219 C 95.871094 16.203125 100.085938 17.664062 103.210938 20.585938 C 106.335938 23.511719 107.898438 27.476562 107.898438 32.472656 C 107.898438 36.925781 106.933594 40.9375 105.011719 44.511719 C 103.082031 48.089844 100.421875 50.890625 97.023438 52.914062 C 93.621094 54.9375 89.769531 55.945312 85.472656 55.949219 Z M 85.773438 52.574219 C 89.273438 52.578125 92.410156 51.726562 95.183594 50.023438 C 97.957031 48.324219 100.144531 45.964844 101.746094 42.9375 C 103.347656 39.914062 104.148438 36.5 104.148438 32.699219 C 104.148438 28.550781 102.933594 25.324219 100.511719 23.023438 C 98.082031 20.726562 94.671875 19.578125 90.273438 19.574219 C 86.773438 19.578125 83.632812 20.441406 80.859375 22.164062 C 78.082031 23.890625 75.894531 26.265625 74.296875 29.289062 C 72.695312 32.316406 71.898438 35.703125 71.898438 39.449219 C 71.898438 43.601562 73.109375 46.828125 75.535156 49.125 C 77.957031 51.429688 81.371094 52.578125 85.773438 52.574219 Z M 156.523438 52.722656 C 158.023438 52.726562 159.320312 52.476562 160.421875 51.972656 L 160.046875 55.125 C 158.792969 55.675781 157.292969 55.945312 155.546875 55.949219 C 152.894531 55.945312 150.847656 55.210938 149.398438 53.738281 C 147.945312 52.261719 147.269531 50.300781 147.375 47.847656 C 143.621094 53.25 138.144531 55.945312 130.949219 55.949219 C 126.542969 55.945312 123.15625 54.835938 120.785156 52.613281 C 118.40625 50.386719 117.21875 47.324219 117.222656 43.421875 C 117.21875 42.074219 117.367188 40.648438 117.671875 39.148438 L 122.171875 16.5 L 125.921875 16.5 L 121.421875 39.148438 C 121.167969 40.25 121.042969 41.5 121.046875 42.898438 C 121.042969 46 121.957031 48.390625 123.785156 50.0625 C 125.609375 51.742188 128.320312 52.578125 131.921875 52.574219 C 136.417969 52.578125 140.144531 51.316406 143.097656 48.789062 C 146.046875 46.265625 147.996094 42.601562 148.949219 37.796875 L 153.222656 16.5 L 156.972656 16.5 L 151.273438 44.847656 C 151.070312 45.652344 150.96875 46.5 150.972656 47.398438 C 150.96875 49.148438 151.429688 50.476562 152.359375 51.375 C 153.28125 52.277344 154.671875 52.726562 156.523438 52.722656 Z M 191.949219 56.023438 C 186.84375 56.023438 182.480469 55.125 178.859375 53.324219 C 175.230469 51.527344 172.480469 49.003906 170.609375 45.75 C 168.730469 42.503906 167.792969 38.726562 167.796875 34.421875 C 167.792969 28.726562 169.09375 23.453125 171.695312 18.601562 C 174.292969 13.753906 177.992188 9.902344 182.796875 7.050781 C 187.59375 4.199219 193.195312 2.773438 199.597656 2.773438 C 203.644531 2.773438 207.257812 3.398438 210.433594 4.648438 C 213.609375 5.898438 216.070312 7.675781 217.824219 9.972656 L 215.125 12.449219 C 211.621094 8.351562 206.34375 6.300781 199.296875 6.296875 C 193.792969 6.300781 188.945312 7.5625 184.746094 10.085938 C 180.546875 12.613281 177.308594 16.003906 175.035156 20.25 C 172.757812 24.503906 171.621094 29.175781 171.625 34.273438 C 171.621094 39.875 173.394531 44.3125 176.949219 47.585938 C 180.496094 50.863281 185.597656 52.503906 192.25 52.5 C 199.445312 52.503906 205.21875 50.402344 209.574219 46.199219 L 211.898438 48.824219 C 209.597656 51.125 206.707031 52.898438 203.234375 54.148438 C 199.757812 55.398438 195.996094 56.023438 191.949219 56.023438 Z M 235.472656 55.949219 C 230.171875 55.945312 225.960938 54.472656 222.835938 51.523438 C 219.710938 48.574219 218.148438 44.625 218.148438 39.671875 C 218.148438 35.226562 219.109375 31.226562 221.035156 27.675781 C 222.957031 24.125 225.621094 21.324219 229.023438 19.273438 C 232.421875 17.226562 236.269531 16.203125 240.574219 16.199219 C 245.871094 16.203125 250.085938 17.664062 253.210938 20.585938 C 256.335938 23.511719 257.898438 27.476562 257.898438 32.472656 C 257.898438 36.925781 256.933594 40.9375 255.011719 44.511719 C 253.082031 48.089844 250.421875 50.890625 247.023438 52.914062 C 243.621094 54.9375 239.769531 55.945312 235.472656 55.949219 Z M 235.773438 52.574219 C 239.273438 52.578125 242.410156 51.726562 245.183594 50.023438 C 247.957031 48.324219 250.144531 45.964844 251.746094 42.9375 C 253.347656 39.914062 254.148438 36.5 254.148438 32.699219 C 254.148438 28.550781 252.933594 25.324219 250.511719 23.023438 C 248.082031 20.726562 244.671875 19.578125 240.273438 19.574219 C 236.773438 19.578125 233.632812 20.441406 230.859375 22.164062 C 228.082031 23.890625 225.894531 26.265625 224.296875 29.289062 C 222.695312 32.316406 221.898438 35.703125 221.898438 39.449219 C 221.898438 43.601562 223.109375 46.828125 225.535156 49.125 C 227.957031 51.429688 231.371094 52.578125 235.773438 52.574219 Z M 306.898438 52.722656 C 308.398438 52.726562 309.695312 52.476562 310.796875 51.972656 L 310.5 55.125 C 309.144531 55.675781 307.617188 55.945312 305.921875 55.949219 C 303.269531 55.945312 301.207031 55.238281 299.734375 53.8125 C 298.257812 52.390625 297.546875 50.425781 297.597656 47.921875 C 295.695312 50.476562 293.320312 52.453125 290.472656 53.851562 C 287.621094 55.25 284.472656 55.945312 281.023438 55.949219 C 275.921875 55.945312 271.832031 54.488281 268.761719 51.5625 C 265.683594 48.640625 264.148438 44.675781 264.148438 39.671875 C 264.148438 35.226562 265.097656 31.214844 266.996094 27.636719 C 268.894531 24.0625 271.53125 21.261719 274.910156 19.238281 C 278.28125 17.214844 282.070312 16.203125 286.273438 16.199219 C 290.320312 16.203125 293.65625 17.066406 296.285156 18.789062 C 298.90625 20.515625 300.695312 22.953125 301.648438 26.097656 L 306.898438 0 L 310.648438 0 L 301.722656 44.847656 C 301.519531 45.652344 301.417969 46.5 301.421875 47.398438 C 301.417969 49.148438 301.882812 50.476562 302.808594 51.375 C 303.734375 52.277344 305.097656 52.726562 306.898438 52.722656 Z M 281.773438 52.574219 C 285.273438 52.578125 288.410156 51.726562 291.183594 50.023438 C 293.957031 48.324219 296.144531 45.964844 297.746094 42.9375 C 299.347656 39.914062 300.148438 36.5 300.148438 32.699219 C 300.148438 28.550781 298.933594 25.324219 296.511719 23.023438 C 294.082031 20.726562 290.671875 19.578125 286.273438 19.574219 C 282.773438 19.578125 279.632812 20.441406 276.859375 22.164062 C 274.082031 23.890625 271.894531 26.265625 270.296875 29.289062 C 268.695312 32.316406 267.898438 35.703125 267.898438 39.449219 C 267.898438 43.601562 269.109375 46.828125 271.535156 49.125 C 273.957031 51.429688 277.371094 52.578125 281.773438 52.574219 Z M 338.523438 16.199219 C 343.671875 16.203125 347.734375 17.664062 350.710938 20.585938 C 353.683594 23.511719 355.167969 27.601562 355.171875 32.847656 L 355.097656 34.421875 L 320.898438 40.875 C 321.148438 44.628906 322.496094 47.515625 324.949219 49.539062 C 327.394531 51.566406 330.84375 52.578125 335.296875 52.574219 C 338.042969 52.578125 340.582031 52.117188 342.910156 51.1875 C 345.234375 50.265625 347.171875 48.976562 348.722656 47.324219 L 350.449219 49.949219 C 348.695312 51.851562 346.472656 53.328125 343.773438 54.375 C 341.070312 55.425781 338.144531 55.945312 335 55.949219 C 329.445312 55.945312 325.082031 54.5 321.910156 51.601562 C 318.734375 48.703125 317.148438 44.675781 317.148438 39.523438 C 317.148438 35.125 318.070312 31.152344 319.921875 27.597656 C 321.769531 24.050781 324.320312 21.261719 327.574219 19.238281 C 330.820312 17.214844 334.472656 16.203125 338.523438 16.199219 Z M 338.449219 19.421875 C 335.195312 19.425781 332.269531 20.214844 329.671875 21.785156 C 327.070312 23.363281 324.996094 25.550781 323.449219 28.347656 C 321.894531 31.152344 321.019531 34.351562 320.824219 37.949219 L 351.648438 32.097656 C 351.695312 28.152344 350.53125 25.050781 348.160156 22.796875 C 345.78125 20.550781 342.542969 19.425781 338.449219 19.421875 Z M 5.773438 -27.351562 "/>
</g>
</svg>

<svg xmlns="http://www.w3.org/2000/svg" width="476" height="65pt" viewBox="0 0 357 65"><path d="M62.773 3.148L55.2 41.023c-1.453 7.403-4.328 12.989-8.625 16.762-4.304 3.774-9.777 5.66-16.426 5.664-4.3-.004-8.027-.715-11.175-2.14-3.153-1.426-5.63-3.485-7.426-6.184l2.328-2.926c1.746 2.598 3.969 4.531 6.672 5.809 2.695 1.273 5.973 1.91 9.828 1.914 5.547-.004 10.121-1.586 13.723-4.762 3.597-3.172 6.023-7.96 7.277-14.363l1.648-8.25c-2.152 3.254-4.855 5.691-8.101 7.312-3.254 1.63-6.953 2.442-11.098 2.438-5.406.004-9.617-1.395-12.64-4.2-3.024-2.796-4.536-6.796-4.536-12 0-1.894.223-3.968.676-6.222L20.7 3.148h3.824L21.148 19.95c-.402 2.254-.605 4.18-.601 5.774-.004 4.304 1.21 7.566 3.637 9.789 2.425 2.226 5.937 3.34 10.539 3.336 5.297.004 9.757-1.508 13.386-4.535 3.621-3.024 6.059-7.563 7.313-13.614l3.527-17.55zm22.7 52.801c-5.301-.004-9.512-1.476-12.637-4.426-3.125-2.949-4.688-6.898-4.688-11.851 0-4.445.961-8.445 2.887-11.996 1.922-3.551 4.586-6.352 7.988-8.403 3.399-2.046 7.247-3.07 11.551-3.074 5.297.004 9.512 1.465 12.637 4.387 3.125 2.926 4.687 6.89 4.687 11.887 0 4.453-.964 8.465-2.886 12.039-1.93 3.578-4.59 6.379-7.989 8.402-3.402 2.023-7.253 3.031-11.55 3.035zm.3-3.375c3.5.004 6.637-.847 9.41-2.55 2.774-1.7 4.962-4.06 6.563-7.087 1.602-3.023 2.402-6.437 2.402-10.238 0-4.148-1.214-7.375-3.636-9.676-2.43-2.296-5.84-3.445-10.239-3.449-3.5.004-6.64.867-9.414 2.59-2.777 1.727-4.964 4.102-6.562 7.125-1.602 3.027-2.399 6.414-2.399 10.16 0 4.153 1.211 7.38 3.637 9.676 2.422 2.305 5.836 3.453 10.238 3.45zm70.75.149c1.5.004 2.797-.246 3.899-.75l-.375 3.152c-1.254.55-2.754.82-4.5.824-2.652-.004-4.7-.738-6.149-2.21-1.453-1.477-2.128-3.438-2.023-5.891-3.754 5.402-9.23 8.097-16.426 8.101-4.406-.004-7.793-1.113-10.164-3.336-2.379-2.226-3.566-5.289-3.562-9.191a21.185 21.185 0 01.449-4.274l4.5-22.648h3.75l-4.5 22.648c-.254 1.102-.379 2.352-.375 3.75-.004 3.102.91 5.493 2.738 7.164 1.824 1.68 4.535 2.516 8.137 2.512 4.496.004 8.223-1.258 11.176-3.785 2.949-2.523 4.898-6.187 5.851-10.992l4.274-21.297h3.75l-5.7 28.348a10.19 10.19 0 00-.3 2.55c-.004 1.75.457 3.079 1.386 3.977.922.902 2.313 1.352 4.164 1.348zm35.426 3.3c-5.105 0-9.469-.898-13.09-2.699-3.629-1.797-6.379-4.32-8.25-7.574-1.879-3.246-2.816-7.023-2.812-11.328-.004-5.695 1.297-10.969 3.898-15.82 2.598-4.848 6.297-8.7 11.102-11.551 4.797-2.852 10.398-4.278 16.8-4.278 4.048 0 7.66.625 10.837 1.875 3.175 1.25 5.636 3.028 7.39 5.325l-2.699 2.476c-3.504-4.097-8.781-6.148-15.828-6.152-5.504.004-10.352 1.266-14.55 3.789-4.2 2.527-7.438 5.918-9.712 10.164-2.277 4.254-3.414 8.926-3.41 14.023-.004 5.602 1.77 10.04 5.324 13.313 3.547 3.277 8.649 4.918 15.301 4.914 7.195.004 12.969-2.098 17.324-6.3l2.324 2.624c-2.3 2.301-5.191 4.074-8.664 5.324-3.476 1.25-7.238 1.875-11.285 1.875zm43.524-.074c-5.301-.004-9.512-1.476-12.637-4.426-3.125-2.949-4.688-6.898-4.688-11.851 0-4.445.961-8.445 2.887-11.996 1.922-3.551 4.586-6.352 7.988-8.403 3.399-2.046 7.247-3.07 11.551-3.074 5.297.004 9.512 1.465 12.637 4.387 3.125 2.926 4.687 6.89 4.687 11.887 0 4.453-.964 8.465-2.886 12.039-1.93 3.578-4.59 6.379-7.989 8.402-3.402 2.023-7.253 3.031-11.55 3.035zm.3-3.375c3.5.004 6.637-.847 9.41-2.55 2.774-1.7 4.962-4.06 6.563-7.087 1.602-3.023 2.402-6.437 2.402-10.238 0-4.148-1.214-7.375-3.636-9.676-2.43-2.296-5.84-3.445-10.239-3.449-3.5.004-6.64.867-9.414 2.59-2.777 1.727-4.964 4.102-6.562 7.125-1.602 3.027-2.399 6.414-2.399 10.16 0 4.153 1.211 7.38 3.637 9.676 2.422 2.305 5.836 3.453 10.238 3.45zm71.125.149c1.5.004 2.797-.246 3.899-.75l-.297 3.152c-1.355.55-2.883.82-4.578.824-2.652-.004-4.715-.71-6.188-2.136-1.476-1.422-2.187-3.387-2.136-5.891a19.459 19.459 0 01-7.125 5.93c-2.852 1.398-6 2.093-9.45 2.097-5.101-.004-9.191-1.46-12.261-4.386-3.078-2.922-4.614-6.887-4.614-11.891 0-4.445.95-8.457 2.848-12.035 1.899-3.575 4.535-6.375 7.914-8.399 3.371-2.023 7.16-3.035 11.363-3.039 4.047.004 7.383.867 10.012 2.59 2.621 1.727 4.41 4.164 5.363 7.309L306.898 0h3.75l-8.925 44.848a10.19 10.19 0 00-.301 2.55c-.004 1.75.46 3.079 1.387 3.977.925.902 2.289 1.352 4.09 1.348zm-25.125-.149c3.5.004 6.637-.847 9.41-2.55 2.774-1.7 4.962-4.06 6.563-7.087 1.602-3.023 2.402-6.437 2.402-10.238 0-4.148-1.214-7.375-3.636-9.676-2.43-2.296-5.84-3.445-10.239-3.449-3.5.004-6.64.867-9.414 2.59-2.777 1.727-4.964 4.102-6.562 7.125-1.602 3.027-2.399 6.414-2.399 10.16 0 4.153 1.211 7.38 3.637 9.676 2.422 2.305 5.836 3.453 10.238 3.45zm56.75-36.375c5.149.004 9.211 1.465 12.188 4.387 2.973 2.926 4.457 7.016 4.46 12.262l-.073 1.574-34.2 6.453c.25 3.754 1.598 6.64 4.051 8.664 2.446 2.027 5.895 3.04 10.348 3.035 2.746.004 5.285-.457 7.613-1.386 2.324-.922 4.262-2.211 5.813-3.864l1.726 2.625c-1.754 1.903-3.976 3.38-6.676 4.426-2.703 1.05-5.628 1.57-8.773 1.574-5.555-.004-9.918-1.449-13.09-4.347-3.176-2.899-4.762-6.926-4.762-12.079 0-4.398.922-8.37 2.774-11.925 1.848-3.547 4.398-6.336 7.652-8.36 3.246-2.023 6.899-3.035 10.95-3.039zm-.074 3.223c-3.254.004-6.18.793-8.777 2.363-2.602 1.578-4.676 3.766-6.223 6.563-1.554 2.804-2.43 6.004-2.625 9.601l30.824-5.851c.047-3.946-1.117-7.047-3.488-9.301-2.379-2.246-5.617-3.371-9.71-3.375zM5.773-27.352" fill="#cbff00" stroke-width=".75" stroke="#cbff00" stroke-miterlimit="10"/></svg>
